X:1
T: Molly Darling
C:
R:Reel
Q: 232
K:A
M:4/4
L:1/8
|:e2 cA e2 cA|d=c BA =GA BG|e2 cA e2 cA|ea ag a2 gf|
e2 cA e2 cA|d=c BA =GA BG|e2 cA e2 cA|ea ag a2 gf|
ec ac ec BA|dB =gB dB A=G|ec ac ec BA|ea ag a2 gf|
ec ac ec BA|dB =gB dB A=G|AB cd ea ga|ed cB A2 a2:|
